public/assets/images/Hermanos-Logo-Green.svg

<svg width="293" height="122" viewBox="0 0 293 122" fill="none" xmlns="http://www.w3.org/2000/svg">
<path d="M125.783 59.3818H123.836C123.432 59.3818 123.231 59.1799 123.231 58.7761V32.1675C123.231 31.7637 123.432 31.5618 123.836 31.5618H125.783C126.187 31.5618 126.389 31.7637 126.389 32.1675V43.5465C126.389 43.8061 126.533 43.9359 126.822 43.9359H137.552C137.84 43.9359 137.984 43.8061 137.984 43.5465V32.1675C137.984 31.7637 138.186 31.5618 138.59 31.5618H140.537C140.941 31.5618 141.143 31.7637 141.143 32.1675V58.7761C141.143 59.1799 140.941 59.3818 140.537 59.3818H138.59C138.186 59.3818 137.984 59.1799 137.984 58.7761V47.0943C137.984 46.8347 137.84 46.7049 137.552 46.7049H126.822C126.533 46.7049 126.389 46.8347 126.389 47.0943V58.7761C126.389 59.1799 126.187 59.3818 125.783 59.3818ZM161.835 59.3818H152.663C150.673 59.3818 149.101 58.8194 147.947 57.6945C146.822 56.5695 146.26 54.9975 146.26 52.9785V43.7196C146.26 41.7005 146.822 40.1285 147.947 39.0036C149.101 37.8786 150.673 37.3162 152.663 37.3162H156.297C158.287 37.3162 159.845 37.8786 160.97 39.0036C162.095 40.1285 162.657 41.7005 162.657 43.7196V49.2143C162.657 49.647 162.455 49.8633 162.052 49.8633H149.807C149.519 49.8633 149.375 49.9931 149.375 50.2527V52.8919C149.375 55.4014 150.586 56.6561 153.009 56.6561H161.835C162.239 56.6561 162.441 56.858 162.441 57.2618V58.8194C162.441 59.1944 162.239 59.3818 161.835 59.3818ZM149.807 47.5702H159.153C159.441 47.5702 159.585 47.426 159.585 47.1376V43.8061C159.585 41.3255 158.374 40.0852 155.951 40.0852H153.009C150.586 40.0852 149.375 41.3255 149.375 43.8061V47.1376C149.375 47.426 149.519 47.5702 149.807 47.5702ZM169.675 59.3818H167.728C167.324 59.3818 167.122 59.1799 167.122 58.7761V37.9219C167.122 37.5181 167.324 37.3162 167.728 37.3162H169.675C170.078 37.3162 170.28 37.5181 170.28 37.9219V39.6525H170.453C170.742 39.018 171.29 38.4699 172.097 38.0084C172.905 37.5469 173.857 37.3162 174.953 37.3162H176.64C177.015 37.3162 177.203 37.5181 177.203 37.9219V39.5228C177.203 39.7247 177.16 39.8833 177.073 39.9987C176.986 40.0852 176.842 40.1141 176.64 40.0852H174.304C173.006 40.0852 172.011 40.4746 171.319 41.2534C170.626 42.0322 170.28 43.0994 170.28 44.4551V58.7761C170.28 59.1799 170.078 59.3818 169.675 59.3818ZM182.795 59.3818H180.848C180.444 59.3818 180.242 59.1799 180.242 58.7761V37.9219C180.242 37.5181 180.444 37.3162 180.848 37.3162H182.795C183.198 37.3162 183.4 37.5181 183.4 37.9219V39.6093H183.573C184.381 38.0806 185.91 37.3162 188.16 37.3162H189.76C192.299 37.3162 194.058 38.2969 195.039 40.2583C195.5 39.3064 196.221 38.5853 197.202 38.095C198.212 37.5758 199.265 37.3162 200.361 37.3162H201.875C203.836 37.3162 205.365 37.8786 206.461 39.0036C207.557 40.1285 208.105 41.7005 208.105 43.7196V58.7761C208.105 59.1799 207.903 59.3818 207.499 59.3818H205.552C205.149 59.3818 204.947 59.1799 204.947 58.7761V43.8493C204.947 41.3399 203.735 40.0852 201.312 40.0852H199.885C198.587 40.0852 197.577 40.4602 196.856 41.2101C196.164 41.9312 195.818 42.9263 195.818 44.1955V58.7761C195.818 59.1799 195.616 59.3818 195.212 59.3818H193.265C192.861 59.3818 192.659 59.1799 192.659 58.7761V43.8493C192.659 41.3399 191.448 40.0852 189.025 40.0852H187.424C186.126 40.0852 185.131 40.4313 184.439 41.1236C183.746 41.8158 183.4 42.7965 183.4 44.0657V58.7761C183.4 59.1799 183.198 59.3818 182.795 59.3818ZM221.23 59.3818H218.98C216.99 59.3818 215.418 58.8194 214.264 57.6945C213.139 56.5695 212.576 54.9975 212.576 52.9785V43.7196C212.576 41.7005 213.139 40.1285 214.264 39.0036C215.418 37.8786 216.99 37.3162 218.98 37.3162H228.369C228.772 37.3162 228.974 37.5181 228.974 37.9219V58.7761C228.974 59.1799 228.772 59.3818 228.369 59.3818H226.422C226.018 59.3818 225.816 59.1799 225.816 58.7761V57.0887H225.643C224.922 58.6175 223.451 59.3818 221.23 59.3818ZM225.816 52.6323V40.4746C225.816 40.215 225.672 40.0852 225.383 40.0852H219.326C216.932 40.0852 215.735 41.3399 215.735 43.8493V52.8487C215.735 55.3581 216.932 56.6128 219.326 56.6128H221.792C223.09 56.6128 224.085 56.2667 224.777 55.5744C225.47 54.8822 225.816 53.9015 225.816 52.6323ZM236.625 59.3818H234.678C234.274 59.3818 234.073 59.1799 234.073 58.7761V37.9219C234.073 37.5181 234.274 37.3162 234.678 37.3162H236.625C237.029 37.3162 237.231 37.5181 237.231 37.9219V39.6093H237.404C238.125 38.0806 239.596 37.3162 241.817 37.3162H244.24C246.201 37.3162 247.73 37.8786 248.826 39.0036C249.922 40.1285 250.47 41.7005 250.47 43.7196V58.7761C250.47 59.1799 250.268 59.3818 249.865 59.3818H247.918C247.514 59.3818 247.312 59.1799 247.312 58.7761V43.8493C247.312 41.3399 246.1 40.0852 243.678 40.0852H241.255C239.957 40.0852 238.962 40.4313 238.269 41.1236C237.577 41.8158 237.231 42.7965 237.231 44.0657V58.7761C237.231 59.1799 237.029 59.3818 236.625 59.3818ZM265.039 59.3818H261.318C259.328 59.3818 257.756 58.8194 256.602 57.6945C255.477 56.5695 254.915 54.9975 254.915 52.9785V43.7196C254.915 41.7005 255.477 40.1285 256.602 39.0036C257.756 37.8786 259.328 37.3162 261.318 37.3162H265.039C267.029 37.3162 268.587 37.8786 269.712 39.0036C270.865 40.1285 271.442 41.7005 271.442 43.7196V52.9785C271.442 54.9975 270.865 56.5695 269.712 57.6945C268.587 58.8194 267.029 59.3818 265.039 59.3818ZM261.664 56.6128H264.693C267.116 56.6128 268.327 55.3725 268.327 52.8919V43.8061C268.327 41.3255 267.116 40.0852 264.693 40.0852H261.664C259.241 40.0852 258.03 41.3255 258.03 43.8061V52.8919C258.03 55.3725 259.241 56.6128 261.664 56.6128ZM283.6 59.3818H275.899C275.495 59.3818 275.293 59.1799 275.293 58.7761V57.2618C275.293 56.8868 275.495 56.6993 275.899 56.6993H283.167C285.417 56.6993 286.542 55.8629 286.542 54.1899V53.3679C286.542 51.8391 285.806 50.7863 284.335 50.2094L279.23 48.0461C277.759 47.4404 276.706 46.7337 276.072 45.9261C275.437 45.0896 275.12 43.9936 275.12 42.6379C275.12 39.0901 277.067 37.3162 280.961 37.3162H288.056C288.46 37.3162 288.662 37.5181 288.662 37.9219V39.4362C288.662 39.8112 288.46 39.9987 288.056 39.9987H281.523C280.485 39.9987 279.692 40.215 279.144 40.6477C278.624 41.0803 278.365 41.5851 278.365 42.162V42.8975C278.365 44.1089 279.187 45.032 280.831 45.6665L285.936 47.9596C287.436 48.5365 288.446 49.3009 288.965 50.2527C289.513 51.2046 289.787 52.517 289.787 54.1899C289.787 57.6512 287.725 59.3818 283.6 59.3818ZM137.422 98.3818H123.836C123.432 98.3818 123.231 98.1799 123.231 97.7761V71.1675C123.231 70.7637 123.432 70.5618 123.836 70.5618H137.422C137.826 70.5618 138.027 70.7637 138.027 71.1675V72.7251C138.027 73.1289 137.826 73.3308 137.422 73.3308H126.822C126.533 73.3308 126.389 73.4606 126.389 73.7202V82.46C126.389 82.7196 126.533 82.8493 126.822 82.8493H136.081C136.484 82.8493 136.686 83.0513 136.686 83.4551V85.0126C136.686 85.4165 136.484 85.6184 136.081 85.6184H126.822C126.533 85.6184 126.389 85.7482 126.389 86.0078V95.2234C126.389 95.483 126.533 95.6128 126.822 95.6128H137.422C137.826 95.6128 138.027 95.8147 138.027 96.2185V97.7761C138.027 98.1799 137.826 98.3818 137.422 98.3818ZM145.273 98.3818H143.326C142.922 98.3818 142.72 98.1799 142.72 97.7761V76.9219C142.72 76.5181 142.922 76.3162 143.326 76.3162H145.273C145.677 76.3162 145.879 76.5181 145.879 76.9219V78.6093H146.052C146.773 77.0806 148.244 76.3162 150.465 76.3162H152.888C154.849 76.3162 156.378 76.8786 157.474 78.0036C158.57 79.1285 159.118 80.7005 159.118 82.7196V97.7761C159.118 98.1799 158.916 98.3818 158.513 98.3818H156.566C156.162 98.3818 155.96 98.1799 155.96 97.7761V82.8493C155.96 80.3399 154.748 79.0852 152.326 79.0852H149.903C148.605 79.0852 147.61 79.4313 146.917 80.1236C146.225 80.8158 145.879 81.7965 145.879 83.0657V97.7761C145.879 98.1799 145.677 98.3818 145.273 98.3818ZM179.138 98.3818H169.966C167.976 98.3818 166.404 97.8194 165.25 96.6945C164.125 95.5695 163.563 93.9975 163.563 91.9785V82.7196C163.563 80.7005 164.125 79.1285 165.25 78.0036C166.404 76.8786 167.976 76.3162 169.966 76.3162H173.6C175.59 76.3162 177.148 76.8786 178.273 78.0036C179.398 79.1285 179.96 80.7005 179.96 82.7196V88.2143C179.96 88.647 179.758 88.8633 179.355 88.8633H167.11C166.822 88.8633 166.678 88.9931 166.678 89.2527V91.8919C166.678 94.4014 167.889 95.6561 170.312 95.6561H179.138C179.542 95.6561 179.744 95.858 179.744 96.2618V97.8194C179.744 98.1944 179.542 98.3818 179.138 98.3818ZM167.11 86.5702H176.456C176.744 86.5702 176.888 86.426 176.888 86.1376V82.8061C176.888 80.3255 175.677 79.0852 173.254 79.0852H170.312C167.889 79.0852 166.678 80.3255 166.678 82.8061V86.1376C166.678 86.426 166.822 86.5702 167.11 86.5702ZM186.978 98.3818H185.031C184.627 98.3818 184.425 98.1799 184.425 97.7761V76.9219C184.425 76.5181 184.627 76.3162 185.031 76.3162H186.978C187.381 76.3162 187.583 76.5181 187.583 76.9219V78.6525H187.756C188.045 78.018 188.593 77.4699 189.4 77.0084C190.208 76.5469 191.16 76.3162 192.256 76.3162H193.943C194.318 76.3162 194.506 76.5181 194.506 76.9219V78.5228C194.506 78.7247 194.463 78.8833 194.376 78.9987C194.289 79.0852 194.145 79.1141 193.943 79.0852H191.607C190.309 79.0852 189.314 79.4746 188.622 80.2534C187.929 81.0322 187.583 82.0994 187.583 83.4551V97.7761C187.583 98.1799 187.381 98.3818 186.978 98.3818ZM205.895 97.2137H203.472C201.511 97.2137 199.982 96.6512 198.886 95.5263C197.79 94.4014 197.242 92.8294 197.242 90.8103V82.7196C197.242 80.7005 197.804 79.1285 198.929 78.0036C200.083 76.8786 201.655 76.3162 203.645 76.3162H213.034C213.438 76.3162 213.64 76.5181 213.64 76.9219V98.3818C213.64 100.372 213.063 101.93 211.909 103.055C210.784 104.208 209.227 104.785 207.236 104.785H199.276C198.843 104.785 198.627 104.583 198.627 104.179V102.579C198.627 102.175 198.843 101.973 199.276 101.973H206.847C209.27 101.973 210.481 100.733 210.481 98.252V94.9206H210.308C209.558 96.4493 208.087 97.2137 205.895 97.2137ZM210.481 90.4642V79.4746C210.481 79.215 210.337 79.0852 210.049 79.0852H204.035C201.612 79.0852 200.4 80.3399 200.4 82.8493V90.6805C200.4 93.1899 201.612 94.4446 204.035 94.4446H206.458C207.756 94.4446 208.751 94.0985 209.443 93.4062C210.135 92.714 210.481 91.7333 210.481 90.4642ZM220.509 105.175H218.605C218.201 105.175 218 104.973 218 104.569V102.968C218 102.564 218.201 102.362 218.605 102.362H219.687C221.533 102.362 222.831 101.843 223.581 100.805C224.187 99.9683 224.735 98.7712 225.225 97.2137H223.97C223.624 97.2137 223.379 97.0117 223.235 96.6079L216.875 76.9219C216.759 76.5181 216.904 76.3162 217.307 76.3162H219.384C219.759 76.3162 220.004 76.5181 220.12 76.9219L225.701 94.7475H225.874L231.455 76.9219C231.542 76.5181 231.773 76.3162 232.148 76.3162H234.138C234.628 76.3162 234.801 76.5325 234.657 76.9652L228.21 97.5165C227.489 99.9683 226.566 101.858 225.441 103.184C224.345 104.511 222.701 105.175 220.509 105.175Z" fill="white"/>
<path d="M92.9088 37.7502C91.3965 36.4483 89.0538 37.5227 89.0538 39.5183V87.7441C89.0538 89.0326 88.0093 90.0771 86.7208 90.0771H36.8447C35.5562 90.0771 34.5117 91.1216 34.5117 92.4101V97.2997C34.5117 98.5882 35.5562 99.6327 36.8447 99.6327H96.2764C97.5649 99.6327 98.6094 98.5882 98.6094 97.2997V43.7274C98.6094 43.0481 98.3133 42.4025 97.7984 41.9593L92.9088 37.7502Z" fill="url(#paint0_linear_367_7463)"/>
<path d="M10.3866 48.1172C10.3866 47.4371 10.6834 46.7909 11.1992 46.3477L48.1986 14.5571C49.0736 13.8052 50.3668 13.8059 51.2411 14.5586L61.6458 23.5165C63.1582 24.8185 65.501 23.7441 65.501 21.7485L65.501 15.3074C65.501 14.6281 65.2049 13.9826 64.6901 13.5394L51.2411 1.96053C50.3668 1.20781 49.0736 1.20716 48.1986 1.959L1.64365 41.959C1.12781 42.4022 0.831055 43.0484 0.831055 43.7285L0.831055 97.2994C0.831055 98.5879 1.87556 99.6324 3.16402 99.6324L8.05365 99.6324C9.34212 99.6324 10.3866 98.5879 10.3866 97.2994L10.3866 48.1172Z" fill="url(#paint1_linear_367_7463)"/>
<path d="M69.8418 70.0145C71.1303 70.0145 72.1748 71.059 72.1748 72.3475V80.5595C72.1748 81.848 73.2193 82.8925 74.5078 82.8925H79.3974C80.6859 82.8925 81.7304 81.848 81.7304 80.5595V13.1079C81.7304 11.8194 80.6859 10.7749 79.3974 10.7749H74.5078C73.2193 10.7749 72.1748 11.8194 72.1748 13.1079V58.126C72.1748 59.4144 71.1303 60.4589 69.8418 60.4589H29.5995C28.311 60.4589 27.2665 59.4144 27.2665 58.126V46.5183C27.2665 44.5239 24.9261 43.4491 23.4133 44.7487L18.5236 48.9495C18.0077 49.3927 17.7109 50.0389 17.7109 50.7191V110.198C17.7109 111.486 18.7554 112.531 20.0439 112.531H24.9335C26.222 112.531 27.2665 111.486 27.2665 110.198V72.3475C27.2665 71.059 28.311 70.0145 29.5995 70.0145H69.8418Z" fill="#3EFF52"/>
<path d="M71.9166 121.476V119.26C71.9166 118.374 72.2976 117.619 73.0597 116.997L77.3524 113.358C78.0523 112.782 78.4022 112.16 78.4022 111.491V110.791C78.4022 110.309 78.2856 109.967 78.0523 109.765C77.8345 109.547 77.469 109.438 76.9558 109.438H76.1392C75.6415 109.438 75.2916 109.547 75.0894 109.765C74.8872 109.967 74.7861 110.309 74.7861 110.791V111.538C74.7861 111.88 74.6228 112.051 74.2962 112.051H72.3132C71.9866 112.051 71.8232 111.88 71.8232 111.538V110.745C71.8232 109.532 72.1576 108.598 72.8264 107.945C73.4952 107.292 74.4439 106.965 75.6726 106.965H77.4457C78.6744 106.965 79.6231 107.292 80.2919 107.945C80.9607 108.598 81.2951 109.532 81.2951 110.745V111.678C81.2951 112.891 80.8285 113.894 79.8953 114.687L75.5093 118.42C75.3227 118.591 75.2294 118.778 75.2294 118.98V119.353H80.8052C81.1318 119.353 81.2951 119.517 81.2951 119.843V121.476C81.2951 121.803 81.1318 121.966 80.8052 121.966H72.4065C72.0799 121.966 71.9166 121.803 71.9166 121.476Z" fill="#3EFF52"/>
<defs>
<linearGradient id="paint0_linear_367_7463" x1="66.5605" y1="34.4316" x2="66.5605" y2="99.6327" gradientUnits="userSpaceOnUse">
<stop stop-color="#47FF5A"/>
<stop offset="1" stop-color="#47FF5A" stop-opacity="0"/>
</linearGradient>
<linearGradient id="paint1_linear_367_7463" x1="33.166" y1="0.651367" x2="33.166" y2="99.6324" gradientUnits="userSpaceOnUse">
<stop stop-color="#47FF5A"/>
<stop offset="1" stop-color="#47FF5A" stop-opacity="0"/>
</linearGradient>
</defs>
</svg>

<svg width="293" height="122" fill="none" id="svg1947142376_8760"><path d="M125.783 59.382h-1.947c-.404 0-.605-.202-.605-.606V32.167c0-.403.201-.605.605-.605h1.947c.404 0 .606.202.606.605v11.38c0 .26.144.389.433.389h10.73c.288 0 .432-.13.432-.39V32.168c0-.403.202-.605.606-.605h1.947c.404 0 .606.202.606.605v26.61c0 .403-.202.605-.606.605h-1.947c-.404 0-.606-.202-.606-.606V47.094c0-.26-.144-.39-.432-.39h-10.73c-.289 0-.433.13-.433.39v11.682c0 .404-.202.606-.606.606Zm36.052 0h-9.172c-1.99 0-3.562-.563-4.716-1.688-1.125-1.125-1.687-2.697-1.687-4.716V43.72c0-2.02.562-3.591 1.687-4.716 1.154-1.125 2.726-1.688 4.716-1.688h3.634c1.99 0 3.548.563 4.673 1.688s1.687 2.697 1.687 4.716v5.494c0 .433-.202.65-.605.65h-12.245c-.288 0-.432.13-.432.389v2.639c0 2.51 1.211 3.764 3.634 3.764h8.826c.404 0 .606.202.606.606v1.557c0 .375-.202.563-.606.563ZM149.807 47.57h9.346c.288 0 .432-.144.432-.432v-3.332c0-2.48-1.211-3.72-3.634-3.72h-2.942c-2.423 0-3.634 1.24-3.634 3.72v3.332c0 .288.144.432.432.432Zm19.868 11.812h-1.947c-.404 0-.606-.202-.606-.606V37.922c0-.404.202-.606.606-.606h1.947c.403 0 .605.202.605.606v1.73h.173c.289-.634.837-1.182 1.644-1.644.808-.461 1.76-.692 2.856-.692h1.687c.375 0 .563.202.563.606v1.6c0 .203-.043.361-.13.477-.087.086-.231.115-.433.086h-2.336c-1.298 0-2.293.39-2.985 1.168-.693.78-1.039 1.846-1.039 3.202v14.321c0 .404-.202.606-.605.606Zm13.12 0h-1.947c-.404 0-.606-.202-.606-.606V37.922c0-.404.202-.606.606-.606h1.947c.403 0 .605.202.605.606v1.687h.173c.808-1.528 2.337-2.293 4.587-2.293h1.6c2.539 0 4.298.98 5.279 2.942.461-.952 1.182-1.673 2.163-2.163a6.823 6.823 0 0 1 3.159-.779h1.514c1.961 0 3.49.563 4.586 1.688s1.644 2.697 1.644 4.716v15.056c0 .404-.202.606-.606.606h-1.947c-.403 0-.605-.202-.605-.606V43.85c0-2.51-1.212-3.764-3.635-3.764h-1.427c-1.298 0-2.308.375-3.029 1.125-.692.721-1.038 1.716-1.038 2.986v14.58c0 .404-.202.606-.606.606h-1.947c-.404 0-.606-.202-.606-.606V43.85c0-2.51-1.211-3.764-3.634-3.764h-1.601c-1.298 0-2.293.346-2.985 1.039-.693.692-1.039 1.672-1.039 2.942v14.71c0 .404-.202.606-.605.606Zm38.435 0h-2.25c-1.99 0-3.562-.563-4.716-1.688-1.125-1.125-1.688-2.697-1.688-4.716V43.72c0-2.02.563-3.591 1.688-4.716 1.154-1.125 2.726-1.688 4.716-1.688h9.389c.403 0 .605.202.605.606v20.854c0 .404-.202.606-.605.606h-1.947c-.404 0-.606-.202-.606-.606V57.09h-.173c-.721 1.529-2.192 2.293-4.413 2.293Zm4.586-6.75V40.475c0-.26-.144-.39-.433-.39h-6.057c-2.394 0-3.591 1.255-3.591 3.764v9c0 2.51 1.197 3.764 3.591 3.764h2.466c1.298 0 2.293-.346 2.985-1.039.693-.692 1.039-1.672 1.039-2.942Zm10.809 6.75h-1.947c-.404 0-.605-.202-.605-.606V37.922c0-.404.201-.606.605-.606h1.947c.404 0 .606.202.606.606v1.687h.173c.721-1.528 2.192-2.293 4.413-2.293h2.423c1.961 0 3.49.563 4.586 1.688s1.644 2.697 1.644 4.716v15.056c0 .404-.202.606-.605.606h-1.947c-.404 0-.606-.202-.606-.606V43.85c0-2.51-1.212-3.764-3.634-3.764h-2.423c-1.298 0-2.293.346-2.986 1.039-.692.692-1.038 1.672-1.038 2.942v14.71c0 .404-.202.606-.606.606Zm28.414 0h-3.721c-1.99 0-3.562-.563-4.716-1.688-1.125-1.125-1.687-2.697-1.687-4.716V43.72c0-2.02.562-3.591 1.687-4.716 1.154-1.125 2.726-1.688 4.716-1.688h3.721c1.99 0 3.548.563 4.673 1.688 1.153 1.125 1.73 2.697 1.73 4.716v9.258c0 2.02-.577 3.591-1.73 4.716-1.125 1.125-2.683 1.688-4.673 1.688Zm-3.375-2.77h3.029c2.423 0 3.634-1.24 3.634-3.72v-9.086c0-2.48-1.211-3.72-3.634-3.72h-3.029c-2.423 0-3.634 1.24-3.634 3.72v9.086c0 2.48 1.211 3.72 3.634 3.72Zm21.936 2.77h-7.701c-.404 0-.606-.202-.606-.606v-1.514c0-.375.202-.563.606-.563h7.268c2.25 0 3.375-.836 3.375-2.51v-.821c0-1.529-.736-2.582-2.207-3.159l-5.105-2.163c-1.471-.606-2.524-1.312-3.158-2.12-.635-.836-.952-1.932-.952-3.288 0-3.548 1.947-5.322 5.841-5.322h7.095c.404 0 .606.202.606.606v1.514c0 .375-.202.563-.606.563h-6.533c-1.038 0-1.831.216-2.379.649-.52.432-.779.937-.779 1.514v.736c0 1.21.822 2.134 2.466 2.768l5.105 2.294c1.5.576 2.51 1.34 3.029 2.293.548.952.822 2.264.822 3.937 0 3.461-2.062 5.192-6.187 5.192Zm-146.178 39h-13.586c-.404 0-.605-.202-.605-.606V71.168c0-.404.201-.606.605-.606h13.586c.404 0 .605.202.605.606v1.557c0 .404-.201.606-.605.606h-10.6c-.289 0-.433.13-.433.39v8.739c0 .26.144.39.433.39h9.259c.403 0 .605.201.605.605v1.558c0 .403-.202.605-.605.605h-9.259c-.289 0-.433.13-.433.39v9.215c0 .26.144.39.433.39h10.6c.404 0 .605.202.605.606v1.557c0 .404-.201.606-.605.606Zm7.851 0h-1.947c-.404 0-.606-.202-.606-.606V76.922c0-.404.202-.606.606-.606h1.947c.404 0 .606.202.606.606v1.687h.173c.721-1.528 2.192-2.293 4.413-2.293h2.423c1.961 0 3.49.563 4.586 1.688 1.096 1.124 1.644 2.697 1.644 4.716v15.056c0 .404-.202.606-.605.606h-1.947c-.404 0-.606-.202-.606-.606V82.85c0-2.51-1.212-3.764-3.634-3.764h-2.423c-1.298 0-2.293.346-2.986 1.039-.692.692-1.038 1.672-1.038 2.942v14.71c0 .404-.202.606-.606.606Zm33.865 0h-9.172c-1.99 0-3.562-.563-4.716-1.688-1.125-1.124-1.687-2.697-1.687-4.716V82.72c0-2.02.562-3.591 1.687-4.716 1.154-1.125 2.726-1.688 4.716-1.688h3.634c1.99 0 3.548.563 4.673 1.688 1.125 1.124 1.687 2.697 1.687 4.716v5.494c0 .433-.202.65-.605.65H167.11c-.288 0-.432.13-.432.389v2.639c0 2.51 1.211 3.764 3.634 3.764h8.826c.404 0 .606.202.606.606v1.557c0 .375-.202.563-.606.563ZM167.11 86.57h9.346c.288 0 .432-.144.432-.432v-3.332c0-2.48-1.211-3.72-3.634-3.72h-2.942c-2.423 0-3.634 1.24-3.634 3.72v3.332c0 .288.144.432.432.432Zm19.868 11.812h-1.947c-.404 0-.606-.202-.606-.606V76.922c0-.404.202-.606.606-.606h1.947c.403 0 .605.202.605.606v1.73h.173c.289-.634.837-1.182 1.644-1.644.808-.461 1.76-.692 2.856-.692h1.687c.375 0 .563.202.563.606v1.6c0 .203-.043.361-.13.477-.087.086-.231.115-.433.086h-2.336c-1.298 0-2.293.39-2.985 1.168-.693.78-1.039 1.846-1.039 3.202v14.321c0 .404-.202.606-.605.606Zm18.917-1.168h-2.423c-1.961 0-3.49-.563-4.586-1.688s-1.644-2.697-1.644-4.716v-8.09c0-2.02.562-3.591 1.687-4.716 1.154-1.125 2.726-1.688 4.716-1.688h9.389c.404 0 .606.202.606.606v21.46c0 1.99-.577 3.548-1.731 4.673-1.125 1.153-2.682 1.73-4.673 1.73h-7.96c-.433 0-.649-.202-.649-.606v-1.6c0-.404.216-.606.649-.606h7.571c2.423 0 3.634-1.24 3.634-3.721v-3.331h-.173c-.75 1.528-2.221 2.293-4.413 2.293Zm4.586-6.75v-10.99c0-.259-.144-.389-.432-.389h-6.014c-2.423 0-3.635 1.255-3.635 3.764v7.831c0 2.51 1.212 3.765 3.635 3.765h2.423c1.298 0 2.293-.346 2.985-1.039.692-.692 1.038-1.673 1.038-2.942Zm10.028 14.711h-1.904c-.404 0-.605-.202-.605-.606v-1.601c0-.404.201-.606.605-.606h1.082c1.846 0 3.144-.519 3.894-1.557.606-.837 1.154-2.034 1.644-3.591h-1.255c-.346 0-.591-.202-.735-.606l-6.36-19.686c-.116-.404.029-.606.432-.606h2.077c.375 0 .62.202.736.606l5.581 17.826h.173l5.581-17.826c.087-.404.318-.606.693-.606h1.99c.49 0 .663.216.519.65l-6.447 20.55c-.721 2.452-1.644 4.342-2.769 5.668-1.096 1.327-2.74 1.991-4.932 1.991Z" fill="#fff"></path><path d="M92.909 37.75c-1.513-1.302-3.855-.227-3.855 1.768v48.226a2.333 2.333 0 0 1-2.333 2.333H36.845a2.333 2.333 0 0 0-2.333 2.333v4.89a2.333 2.333 0 0 0 2.333 2.333h59.431A2.333 2.333 0 0 0 98.61 97.3V43.727c0-.679-.296-1.324-.81-1.768l-4.89-4.209Z" fill="url(#svg1947142376_8760_a)"></path><path d="M10.387 48.117c0-.68.296-1.326.812-1.77l37-31.79a2.333 2.333 0 0 1 3.042.002l10.405 8.958c1.512 1.302 3.855.227 3.855-1.768v-6.442c0-.679-.296-1.324-.81-1.768L51.24 1.961a2.333 2.333 0 0 0-3.042-.002l-46.555 40a2.333 2.333 0 0 0-.813 1.77v53.57a2.333 2.333 0 0 0 2.333 2.333h4.89a2.333 2.333 0 0 0 2.333-2.333V48.117Z" fill="url(#svg1947142376_8760_b)"></path><path d="M69.842 70.014a2.333 2.333 0 0 1 2.333 2.334v8.212a2.333 2.333 0 0 0 2.333 2.332h4.89a2.333 2.333 0 0 0 2.332-2.332V13.108a2.333 2.333 0 0 0-2.333-2.333h-4.89a2.333 2.333 0 0 0-2.332 2.333v45.018a2.333 2.333 0 0 1-2.333 2.333H29.6a2.333 2.333 0 0 1-2.334-2.333V46.518c0-1.994-2.34-3.069-3.853-1.77l-4.89 4.202a2.333 2.333 0 0 0-.812 1.77v59.478a2.333 2.333 0 0 0 2.333 2.333h4.89a2.333 2.333 0 0 0 2.332-2.333v-37.85a2.333 2.333 0 0 1 2.334-2.334h40.242Zm2.075 51.462v-2.216c0-.886.38-1.641 1.143-2.263l4.292-3.639c.7-.576 1.05-1.198 1.05-1.867v-.7c0-.482-.116-.824-.35-1.026-.218-.218-.583-.327-1.096-.327h-.817c-.498 0-.847.109-1.05.327-.202.202-.303.544-.303 1.026v.747c0 .342-.163.513-.49.513h-1.983c-.326 0-.49-.171-.49-.513v-.793c0-1.213.335-2.147 1.003-2.8.67-.653 1.618-.98 2.847-.98h1.773c1.228 0 2.177.327 2.846.98s1.003 1.587 1.003 2.8v.933c0 1.213-.466 2.216-1.4 3.009l-4.386 3.733c-.186.171-.28.358-.28.56v.373h5.576c.327 0 .49.164.49.49v1.633c0 .327-.163.49-.49.49h-8.399c-.326 0-.49-.163-.49-.49Z" fill="#3EFF52"></path><defs><linearGradient id="svg1947142376_8760_a" x1="66.561" y1="34.432" x2="66.561" y2="99.633" gradientUnits="userSpaceOnUse"><stop stop-color="#47FF5A"></stop><stop offset="1" stop-color="#47FF5A" stop-opacity="0"></stop></linearGradient><linearGradient id="svg1947142376_8760_b" x1="33.166" y1=".651" x2="33.166" y2="99.632" gradientUnits="userSpaceOnUse"><stop stop-color="#47FF5A"></stop><stop offset="1" stop-color="#47FF5A" stop-opacity="0"></stop></linearGradient></defs></svg>
